Sources/FrostedUI/Resources/Icons.xcassets/paperAirplaneFilled20.imageset/paper-airplane-filled-20.svg

<svg width="20" height="20" viewBox="0 0 20 20" fill="none" xmlns="http://www.w3.org/2000/svg" data-fui-icon="true">
  <path
    d="M19.523 9.21833L1.219 0.089328C0.554753 -0.24092 -0.178739 0.398608 0.0392569 1.12201L2.55775 8.3665C2.66034 8.70461 2.95271 8.94575 3.29894 8.97458L11.9059 10.002L3.29894 11.0295C2.95271 11.0583 2.66034 11.2994 2.55775 11.6375L0.0392569 18.8794C-0.178739 19.6028 0.552189 20.2423 1.219 19.9095L19.5255 10.7805C19.8615 10.6127 20 10.3742 20 9.99939C20 9.62459 19.8641 9.38608 19.5255 9.21833H19.523Z"
    fill="currentColor"
  />
</svg>

<svg xmlns="http://www.w3.org/2000/svg" width="20" height="20" fill="none" data-fui-icon="true" viewBox="0 0 20 20"><path fill="currentColor" d="M19.523 9.218 1.219.09C.555-.24-.179.4.039 1.122l2.519 7.245c.102.338.395.579.74.608l8.608 1.027-8.607 1.027a.85.85 0 0 0-.741.608L.039 18.88c-.218.724.513 1.363 1.18 1.03l18.307-9.128c.335-.168.474-.407.474-.782 0-.374-.136-.613-.474-.78z"/></svg>
